X: 537
T: Dağları Hep
C: Sadettin Kaynak
O: Turkey
F: http://compmusic.upf.edu/node/140
N: karcigar--sarki--aksak--daglari_hep--sadettin_kaynak
N: makam= karcigar
N: form= sarki
N: usul= aksak = 9/8
M: 9/8
L: 1/16
K: C _2/4B _3/4e ^3/4f 
Q: 1/4=60
%%MIDI tuningsystem comma53
Gc2cc2d=ecd2_1/4BcdBc | A_1/4BGc2ccBcdcBBAA6Gc2cc2d=ecd2B | 
w:   |   | 
cd_1/4BcABGc2ccBcdcB  | _1/4BAA6g3^fg2z2 | 
w:   |   | 
g2a2g2^f2=e2e3fg2  | a2g2^f2=e4f2g4 | \
w:   |   | 
g4g4g4c'2c'3_bb3aa3gbagg^f2 | 
w:   | 
g4g4g4gg^f_7/8e  | d2z2=fff2f2f=ed^cdc | \
w:   |   | 
_7/8BAB2zd2dd2g2=f2=ef  | 
w:   | 
ag=f=ed2zc2=Bc4z4c2c2decd2_1/4Bc4  | \
w:   | 
z4c2c2d=ec=f2ff2 | 
w:   | 
_1/4e2e2d2g^f_7/8edc2g3g  | g4g4g^f_7/8edd2c3_1/4BB2BAA4GABdc2  | 
w:   |   | 
zc2=Bc4z4c2c2 | d=ecd2_1/4Bc4z4c2  | \
w:   |   | 
c2d=ec=f2ff2_1/4e2e2d2 | 
w:   | 
g^f_7/8edc2g3gg4g4gfedd2c3_1/4BB2BA | \
w:   | 
A4A4z2Gc2cc2  | 
w:   | 
d=ecd2_1/4BcdBcABGc2c | c_1/4BcdcBBAA6Gc2cc2d=ecd2BcdBcAB | 
w:   |   | 
Gc2cc_1/4BcdcBBAA6g3^fg2z2g2a2g2 | \
w:   | 
^f2=e2e3fg2a2g2f2  | 
w:   | 
=e4^f2g4g4g4g4c'2c'3_bb3a  | a3g_bagg^f2g4g4g4ggf_7/8ed2z2=ff  | 
w:   |   | 
=f2f2f=ed^cdc_7/8BAB2zd2dd2g2f2efagfed2  | 
w:   | 
zc2=Bc4z4c2c2 | d=ecd2_1/4Bc4z4c2  | \
w:   |   | 
c2d=ec=f2ff2_1/4e2e2d2 | 
w:   | 
g^f_7/8edc2g3gg4g4gfedd2c3_1/4BB2BA | \
w:   | 
A4GA_1/4Bdc2zc2=Bc4z4c2c2d=ecd2_1/4B | 
w:   | 
c4z4c2c2d=ec=f2ff2_1/4e2e2d2g^f_7/8edc2 | \
w:   | 
g3gg4g4g^f_7/8ed  | 
w:   | 
d2c3_1/4BB2BAA4A4z2|
w:   | 


